svgs/solid/phone-office.svg

<svg xmlns="http://www.w3.org/2000/svg" viewBox="0 0 576 512"><!-- Font Awesome Pro 5.15.3 by @fontawesome - https://fontawesome.com License - https://fontawesome.com/license (Commercial License) --><path d="M128 416h64c17.67 0 32-14.33 32-32V32c0-17.67-14.33-32-32-32h-64c-17.67 0-32 14.33-32 32v352c0 17.67 14.33 32 32 32zM528 32H256v352c0 35.29-28.71 64-64 64h-64c-35.29 0-64-28.71-64-64V32H48C21.49 32 0 53.49 0 80v384c0 26.51 21.49 48 48 48h480c26.51 0 48-21.49 48-48V80c0-26.51-21.49-48-48-48zM384 432c0 8.84-7.16 16-16 16h-32c-8.84 0-16-7.16-16-16v-32c0-8.84 7.16-16 16-16h32c8.84 0 16 7.16 16 16v32zm0-128c0 8.84-7.16 16-16 16h-32c-8.84 0-16-7.16-16-16v-32c0-8.84 7.16-16 16-16h32c8.84 0 16 7.16 16 16v32zm128 128c0 8.84-7.16 16-16 16h-32c-8.84 0-16-7.16-16-16v-32c0-8.84 7.16-16 16-16h32c8.84 0 16 7.16 16 16v32zm0-128c0 8.84-7.16 16-16 16h-32c-8.84 0-16-7.16-16-16v-32c0-8.84 7.16-16 16-16h32c8.84 0 16 7.16 16 16v32zm0-112H320V96h192v96z"/></svg>

<svg xmlns="http://www.w3.org/2000/svg" viewBox="0 0 576 512"><!--! Font Awesome Pro 6.0.0-alpha3 by @fontawesome - https://fontawesome.com License - https://fontawesome.com/license (Commercial License) --><path d="M128 416h64c17.62 0 32-14.38 32-32V32c0-17.62-14.38-32-32-32H128C110.4 0 96 14.38 96 32v352C96 401.6 110.4 416 128 416zM528 32H256v352c0 35.25-28.75 64-64 64H128c-35.25 0-64-28.75-64-64V32H48C21.5 32 0 53.5 0 80v384C0 490.5 21.5 512 48 512h480c26.5 0 48-21.5 48-48v-384C576 53.5 554.5 32 528 32zM384 432c0 8.875-7.125 16-16 16h-32c-8.875 0-16-7.125-16-16v-32c0-8.875 7.125-16 16-16h32c8.875 0 16 7.125 16 16V432zM384 304c0 8.875-7.125 16-16 16h-32C327.1 320 320 312.9 320 304v-32C320 263.1 327.1 256 336 256h32C376.9 256 384 263.1 384 272V304zM512 432c0 8.875-7.125 16-16 16h-32c-8.875 0-16-7.125-16-16v-32c0-8.875 7.125-16 16-16h32c8.875 0 16 7.125 16 16V432zM512 304c0 8.875-7.125 16-16 16h-32C455.1 320 448 312.9 448 304v-32C448 263.1 455.1 256 464 256h32C504.9 256 512 263.1 512 272V304zM512 192h-192V96h192V192z"/></svg>
